X: 26557
T: Mick Carr's
R: barndance
M: 4/4
K: Gmajor
|:A/ B>c|d>ed>c B<GB>c|d>ed>B g2 B2|c>dc>B A>^GA>B|c>Bc>A d2 B>c|
d>ed>c B<GB>c|d>ed>B (3ggg f>g|e>gf>e d>cB>A|1 (3GGG F2 G3/2:|2 G2 F2 G2||
|:F>E|D2 G>B d2 d2|e>dc>B c2 c2|D2 F>A c2 c>d|f>ed>c B2 B2|
D2 G>B d2 d2|e>dc>B c4|D>EF>G A>cB>A|1 (3GGG F2 G2:|2 G2 F2 G3/2||

